%
(Header)
(Generated by gcodetools from Inkscape.)
(Using default header. To add your own header create file "header" in the output dir.)
M3
(Header end.)
G21 (All units in mm)

(Start cutting path id: path4760)
(Change tool to Default tool)

G00 Z1.000000
G00 X13.618683 Y23.736706

G01 Z-1.000000 F2000.0(Penetrate)
G01 X10.194171 Y17.223686 Z-1.000000 F2000.000000
G01 X2.886069 Y16.352418 Z-1.000000
G01 X8.021861 Y11.081833 Z-1.000000
G01 X6.591888 Y3.861641 Z-1.000000
G01 X13.190862 Y7.118151 Z-1.000000
G01 X19.615975 Y3.527590 Z-1.000000
G01 X18.559123 Y10.810295 Z-1.000000
G01 X23.958639 Y15.809341 Z-1.000000
G01 X23.788683 Y15.838647 Z-1.000000
G01 X16.705237 Y17.055687 Z-1.000000
G01 X13.618683 Y23.736706 Z-1.000000
G00 Z1.000000

(End cutting path id: path4760)


(Start cutting path id: path4760)
(Change tool to Default tool)

G00 Z1.000000
G00 X13.608881 Y23.351864

G01 Z-1.000000 F2000.0(Penetrate)
G01 X16.587992 Y16.903310 Z-1.000000 F2000.000000
G01 X23.589392 Y15.699944 Z-1.000000
G01 X18.377446 Y10.874761 Z-1.000000
G01 X19.397182 Y3.844059 Z-1.000000
G01 X13.196724 Y7.309596 Z-1.000000
G01 X6.824356 Y4.168343 Z-1.000000
G01 X8.205492 Y11.136532 Z-1.000000
G01 X3.249423 Y16.223486 Z-1.000000
G01 X10.301614 Y17.063498 Z-1.000000
G01 X13.608881 Y23.351864 Z-1.000000
G00 Z1.000000

(End cutting path id: path4760)


(Start cutting path id: path5253)
(Change tool to Default tool)

G00 Z1.000000
G00 X28.494671 Y8.267088

G01 Z-1.000000 F2000.0(Penetrate)
G01 X27.361662 Y6.459464 Z-1.000000 F2000.000000
G01 X27.361662 Y5.047528 Z-1.000000
G01 X26.933541 Y5.047528 Z-1.000000
G01 X26.933541 Y6.414057 Z-1.000000
G01 X25.796208 Y8.267088 Z-1.000000
G01 X26.269736 Y8.267088 Z-1.000000
G01 X27.149764 Y6.827043 Z-1.000000
G01 X28.038440 Y8.267088 Z-1.000000
G01 X28.494671 Y8.267088 Z-1.000000
G00 Z1.000000

(End cutting path id: path5253)


(Start cutting path id: path4651-5-5-4)
(Change tool to Default tool)

G00 Z1.000000
G00 X25.017445 Y11.999986

G01 Z-1.000000 F2000.0(Penetrate)
G01 X25.017445 Y1.997987 Z-1.000000 F2000.000000
G01 X25.081908 Y1.997987 Z-1.000000
G01 X25.081908 Y11.999986 Z-1.000000
G01 X25.017445 Y11.999986 Z-1.000000
G00 Z1.000000

(End cutting path id: path4651-5-5-4)


(Start cutting path id: path4651-5-5)
(Change tool to Default tool)

G00 Z1.000000
G00 X30.000863 Y26.002784

G01 Z-1.000000 F2000.0(Penetrate)
G01 X30.000863 Y1.997987 Z-1.000000 F2000.000000
G01 X30.100493 Y1.997987 Z-1.000000
G01 X30.100493 Y26.002784 Z-1.000000
G01 X30.000863 Y26.002784 Z-1.000000
G00 Z1.000000

(End cutting path id: path4651-5-5)


(Start cutting path id: path4651-5)
(Change tool to Default tool)

G00 Z1.000000
G00 X35.001862 Y34.004383

G01 Z-1.000000 F2000.0(Penetrate)
G01 X35.001862 Y1.997987 Z-1.000000 F2000.000000
G01 X35.101492 Y1.997987 Z-1.000000
G01 X35.101492 Y34.004383 Z-1.000000
G01 X35.001862 Y34.004383 Z-1.000000
G00 Z1.000000

(End cutting path id: path4651-5)


(Start cutting path id: path5250)
(Change tool to Default tool)

G00 Z1.000000
G00 X4.898240 Y29.166445

G01 Z-1.000000 F2000.0(Penetrate)
G01 X3.786462 Y27.574482 Z-1.000000 F2000.000000
G01 X4.896077 Y25.945749 Z-1.000000
G01 X4.400752 Y25.945749 Z-1.000000
G01 X3.522577 Y27.271663 Z-1.000000
G01 X2.622772 Y25.945749 Z-1.000000
G01 X2.155566 Y25.945749 Z-1.000000
G01 X3.278159 Y27.555016 Z-1.000000
G01 X2.181521 Y29.166445 Z-1.000000
G01 X2.674684 Y29.166445 Z-1.000000
G01 X3.542044 Y27.857834 Z-1.000000
G01 X4.428871 Y29.166445 Z-1.000000
G01 X4.898240 Y29.166445 Z-1.000000
G00 Z1.000000

(End cutting path id: path5250)


(Start cutting path id: path4651-8-7)
(Change tool to Default tool)

G00 Z1.000000
G00 X1.995266 Y25.102213

G01 Z-1.000000 F2000.0(Penetrate)
G01 X1.995266 Y25.002584 Z-1.000000 F2000.000000
G01 X11.997265 Y25.002584 Z-1.000000
G01 X11.997265 Y25.102214 Z-1.000000
G01 X1.995266 Y25.102213 Z-1.000000
G00 Z1.000000

(End cutting path id: path4651-8-7)


(Start cutting path id: path4651-8)
(Change tool to Default tool)

G00 Z1.000000
G00 X1.995266 Y30.103213

G01 Z-1.000000 F2000.0(Penetrate)
G01 X1.995266 Y30.003584 Z-1.000000 F2000.000000
G01 X26.000063 Y30.003584 Z-1.000000
G01 X26.000063 Y30.103213 Z-1.000000
G01 X1.995266 Y30.103213 Z-1.000000
G00 Z1.000000

(End cutting path id: path4651-8)


(Start cutting path id: path4651)
(Change tool to Default tool)

G00 Z1.000000
G00 X1.995266 Y35.102259

G01 Z-1.000000 F2000.0(Penetrate)
G01 X1.995266 Y35.006537 Z-1.000000 F2000.000000
G01 X34.001662 Y35.006537 Z-1.000000
G01 X34.001662 Y35.102259 Z-1.000000
G01 X1.995266 Y35.102259 Z-1.000000
G00 Z1.000000

(End cutting path id: path4651)


(Start cutting path id: rect142)
(Change tool to Default tool)

G00 Z1.000000
G00 X0.494966 Y37.505083

G01 Z-1.000000 F2000.0(Penetrate)
G01 X0.494966 Y37.456245 Z-1.000000 F2000.000000
G01 X0.494966 Y0.497687 Z-1.000000
G01 X37.502362 Y0.497687 Z-1.000000
G01 X37.502362 Y37.505083 Z-1.000000
G01 X0.494966 Y37.505083 Z-1.000000
G00 Z1.000000

(End cutting path id: rect142)


(Start cutting path id: rect142)
(Change tool to Default tool)

G00 Z1.000000
G00 X0.594596 Y37.405454

G01 Z-1.000000 F2000.0(Penetrate)
G01 X37.402733 Y37.405454 Z-1.000000 F2000.000000
G01 X37.402733 Y0.597316 Z-1.000000
G01 X0.594596 Y0.597316 Z-1.000000
G01 X0.594596 Y37.405454 Z-1.000000
G00 Z1.000000

(End cutting path id: rect142)


(Footer)
M5
G00 X0.0000 Y0.0000
M2
(Using default footer. To add your own footer create file "footer" in the output dir.)
(end)
%